images/logos/colorful/loconet.svg

<svg height="20" viewBox="0 0 111 20" width="111" xmlns="http://www.w3.org/2000/svg"><g fill="none" fill-rule="evenodd" transform="translate(-56 -30)"><path d="m0 0h224v80h-224z"/><path d="m58.0574693 47.5406001c-1.2367632-1.2978576-2.0574693-3.1625183-2.0574693-5.0951684v-12.4400464h3.7240463v12.3845105c0 1.0205147.2996282 1.8771142.9955172 2.5940324.6985733.719611 1.5320295 1.003349 2.4664803 1.003349h4.9108155v3.680517h-4.938329c-2.1581283-.0026926-3.8988574-.865014-5.101061-2.1271941zm21.5366574-12.2495414c.8874766.3874051 1.6642283.9249255 2.3312617 1.6118881.6666979.6872991 1.1931443 1.4991333 1.5793392 2.4355026.386195.9360327.5794602 1.9531815.5794602 3.0511098 0 1.0885041-.1932652 2.0962287-.5794602 3.0231737-.3861949.9272816-.9126413 1.7320476-1.5793392 2.4146345-.6670334.682587-1.4437851 1.2153953-2.3312617 1.5980882-.8874766.3830296-1.8370262.5742078-2.8483133.5742078-1.0206819 0-1.9725802-.1911782-2.8553594-.5742078-.8827791-.3826929-1.655169-.9155012-2.317505-1.5980882-.6620004-.6825869-1.1860981-1.4873529-1.5722931-2.4146345-.3861949-.926945-.5794601-1.9346696-.5794601-3.0231737 0-1.0979283.1932652-2.1150771.5794601-3.0511098.386195-.9363693.9102927-1.7482035 1.5722931-2.4355026.662336-.6869626 1.4347259-1.224483 2.317505-1.6118881.8827792-.3877417 1.8346775-.581276 2.8553594-.581276 1.0112871 0 1.9608367.1935343 2.8483133.581276zm-1.4689499 10.7682469c.4321625-.1871392.81366-.4543848 1.144828-.8024099.331168-.3476885.5908682-.7626933.779436-1.245351.1882323-.4826576.2828517-1.0154659.2828517-1.5980882 0-.5910368-.0946194-1.1366352-.2828517-1.6367951-.1885678-.5001598-.448268-.9262718-.779436-1.2786725-.331168-.3520641-.7126655-.6277242-1.144828-.8279901-.432498-.1999293-.892174-.299894-1.3793634-.299894-.4875249 0-.954247.0999647-1.4001662.299894-.4462548.2002659-.8274167.475926-1.144828.8279901-.3174113.3524007-.5704008.7785127-.7586331 1.2786725-.1885678.5001599-.2828517 1.0457583-.2828517 1.6367951 0 .5826223.0942839 1.1154306.2828517 1.5980882.1882323.4826577.4412218.8976625.7586331 1.245351.3174113.3480251.6985732.6152707 1.144828.8024099.4459192.1874758.9126413.2803723 1.4001662.2803723.4871894 0 .9468654-.0928965 1.3793634-.2803723zm53.1774622-15.4914929c.865331.3611518 1.54478.8700628 2.207116 1.5250501.634487.6458996 1.127716 1.3766177 1.489081 2.2352367.366734.873092.633816 1.8458121.633816 3.1207822v12.2226149h-3.724382v-12.5982397c0-.5678127-.22816-1.52505-.889825-2.2668753-.558993-.6270511-1.42768-1.1241817-2.503724-1.1241817-1.057255 0-1.914869.4880429-2.475875 1.1241817-.555638.6300803-.88949 1.5149526-.88949 2.2668753v12.5982397h-3.724382v-12.2226149c0-1.1854395.2342-2.3042359.627441-3.1483819.405991-.8717457.841509-1.5718348 1.480694-2.2126857.676092-.678548 1.359902-1.1642349 2.215504-1.5270696.888147-.3769711 1.745426-.5607445 2.766108-.5607445 1.021017 0 1.880981.1891587 2.787918.5678127zm10.523895 7.5044177h7.945348v3.4869827h-7.945348v.8858821c0 .970364.293253 1.6926675.767021 2.280002.615027.7626933 1.543102 1.2938187 2.735911 1.2618434h5.876806v3.6808536h-5.918076c-1.298501 0-2.335288-.2679187-3.309667-.7741371-.729442-.3789906-1.438752-.9134817-1.936343-1.4863432-.566374-.6522946-.87674-1.111055-1.227704-1.8404268-.508328-1.057202-.712665-2.2268221-.712665-3.1769913v-5.1207485c0-.9407449.203331-1.9461134.596907-2.8727218.337208-.7939954.892174-1.6546339 1.420969-2.203598.528796-.5489642 1.251863-1.137645 1.995061-1.4843238.901905-.4207267 1.826289-.703455 2.837912-.703455h6.253606v3.6808536h-5.876806c-.988471 0-1.848098.3210986-2.510435 1.013783-.631802.6607092-.992497 1.5826055-.992497 2.486663zm19.918061-4.3900305v15.9855943h-3.724717v-15.9855943h-5.255405v-3.6771512h14.235527v3.6771512z" fill="#696464" fill-rule="nonzero"/><path d="m103.292268 32.8434392-1.449154 1.4553777c-.671731-.6758553-1.45016-1.2069807-2.3346169-1.5933761-.914319-.3988489-1.8920531-.5984416-2.9338734-.5984416-1.0512152 0-2.0316336.1995927-2.940584.5984416-.9092861.3988489-1.7044919.9525252-2.3866242 1.6600192-.6817967.7078306-1.2216643 1.5438986-1.6196028 2.5082042-.3976029.963969-.5962366 2.0120833-.5962366 3.1423234 0 1.1211525.1986337 2.1588327.5962366 3.113714.3979385.9548813.9378061 1.7842177 1.6196028 2.4863264.6821323.703455 1.4773381 1.2520826 2.3866242 1.6458828.9089504.3944733 1.8893688.59171 2.9402484.59171 1.0421559 0 2.01989-.1972367 2.934209-.59171.7029349-.3029232 1.3387639-.6977332 1.9074879-1.1844298l1.470963 1.4765824c-.770713.6973965-1.643426 1.2561216-2.617805 1.6761751-1.1599265.5001598-2.4007161.7505764-3.7223683.7505764-1.3337314 0-2.5775407-.2504166-3.7307569-.7505764-1.1535518-.4994867-2.1628257-1.1962101-3.0284929-2.0884873-.864996-.8912674-1.5498125-1.9430841-2.054785-3.1551135-.5043015-1.2113562-.75662-2.5280624-.75662-3.9501186 0-1.4345097.2523185-2.7636694.75662-3.9871426.5049725-1.2234732 1.189789-2.2843776 2.054785-3.1823766.8656672-.8976625 1.8749411-1.6001077 3.0284929-2.1063261 1.1532162-.5062183 2.3970255-.7593275 3.7307569-.7593275 1.3216522 0 2.5624418.2531092 3.7223683.7593275 1.14919.5018428 2.156787 1.1965467 3.023125 2.0827654zm10.535974 2.4476195c.887141.3874051 1.664228.9249255 2.330926 1.6118881.666362.6872991 1.19348 1.4991333 1.579339 2.4355026.386531.9363693.57946 1.9535181.57946 3.0511098 0 1.0885041-.192929 2.0962287-.57946 3.0231737-.385859.9276182-.912977 1.7323841-1.579339 2.4146345-.666698.6832602-1.443785 1.2157318-2.330926 1.5980882-.887812.3833662-1.837026.5745444-2.848649.5745444-1.020682 0-1.97258-.1911782-2.855359-.5745444-.882779-.3823564-1.655169-.914828-2.31717-1.5980882-.662336-.6822504-1.186433-1.4870163-1.572628-2.4146345-.386195-.926945-.579125-1.9346696-.579125-3.0231737 0-1.0975917.19293-2.1147405.579125-3.0511098s.910292-1.7482035 1.572628-2.4355026c.662001-.6869626 1.434391-1.224483 2.31717-1.6118881s1.834677-.581276 2.855359-.581276c1.011623 0 1.960837.1938709 2.848649.581276zm-.92472 12.2306929c.602276-.2611872 1.134762-.6334461 1.596451-1.1194696.462024-.4850137.824061-1.063597 1.087117-1.7367597.26272-.6731627.394247-1.4159977.394247-2.2285051 0-.8246243-.131527-1.5856347-.394247-2.2830312-.263056-.6977332-.625093-1.2917992-1.087117-1.7828714-.461689-.4910722-.994175-.8761212-1.596451-1.1551472-.602948-.2786893-1.244145-.4183706-1.923929-.4183706-.679783 0-1.330711.1396813-1.952448.4183706-.622408.279026-1.154223.664075-1.596787 1.1551472-.442229.4910722-.795541 1.0851382-1.057926 1.7828714-.263055.6973965-.394247 1.4584069-.394247 2.2830312 0 .8125074.131192 1.5553424.394247 2.2285051.262385.6731627.615697 1.251746 1.057926 1.7367597.442564.4860235.974379.8582824 1.596787 1.1194696.621737.2611871 1.272665.3904343 1.952448.3904343.679784 0 1.320981-.1292472 1.923929-.3904343z" fill="#00a5d7"/></g></svg>

<?xml version="1.0" encoding="UTF-8"?>
<svg width="111px" height="20px" viewBox="0 0 111 20" version="1.1" xmlns="http://www.w3.org/2000/svg" xmlns:xlink="http://www.w3.org/1999/xlink">
    <!-- Generator: Sketch 50.2 (55047) - http://www.bohemiancoding.com/sketch -->
    <title>13</title>
    <desc>Created with Sketch.</desc>
    <defs></defs>
    <g id="Desktop" stroke="none" stroke-width="1" fill="none" fill-rule="evenodd">
        <g id="logos" transform="translate(-78.000000, -469.000000)">
            <g id="13" transform="translate(22.000000, 439.000000)">
                <rect id="Rectangle-7" x="0" y="0" width="224" height="80"></rect>
                <path d="M58.0574693,47.5406001 C56.8207061,46.2427425 56,44.3780818 56,42.4454317 L56,30.0053853 L59.7240463,30.0053853 L59.7240463,42.3898958 C59.7240463,43.4104105 60.0236745,44.26701 60.7195635,44.9839282 C61.4181368,45.7035392 62.251593,45.9872772 63.1860438,45.9872772 L68.0968593,45.9872772 L68.0968593,49.6677942 L63.1585303,49.6677942 C61.000402,49.6651016 59.2596729,48.8027802 58.0574693,47.5406001 Z M79.5941267,35.2910587 C80.4816033,35.6784638 81.258355,36.2159842 81.9253884,36.9029468 C82.5920863,37.5902459 83.1185327,38.4020801 83.5047276,39.3384494 C83.8909226,40.2744821 84.0841878,41.2916309 84.0841878,42.3895592 C84.0841878,43.4780633 83.8909226,44.4857879 83.5047276,45.4127329 C83.1185327,46.3400145 82.5920863,47.1447805 81.9253884,47.8273674 C81.258355,48.5099544 80.4816033,49.0427627 79.5941267,49.4254556 C78.7066501,49.8084852 77.7571005,49.9996634 76.7458134,49.9996634 C75.7251315,49.9996634 74.7732332,49.8084852 73.890454,49.4254556 C73.0076749,49.0427627 72.235285,48.5099544 71.572949,47.8273674 C70.9109486,47.1447805 70.3868509,46.3400145 70.0006559,45.4127329 C69.614461,44.4857879 69.4211958,43.4780633 69.4211958,42.3895592 C69.4211958,41.2916309 69.614461,40.2744821 70.0006559,39.3384494 C70.3868509,38.4020801 70.9109486,37.5902459 71.572949,36.9029468 C72.235285,36.2159842 73.0076749,35.6784638 73.890454,35.2910587 C74.7732332,34.903317 75.7251315,34.7097827 76.7458134,34.7097827 C77.7571005,34.7097827 78.7066501,34.903317 79.5941267,35.2910587 Z M78.1251768,46.0593056 C78.5573393,45.8721664 78.9388368,45.6049208 79.2700048,45.2568957 C79.6011728,44.9092072 79.860873,44.4942024 80.0494408,44.0115447 C80.2376731,43.5288871 80.3322925,42.9960788 80.3322925,42.4134565 C80.3322925,41.8224197 80.2376731,41.2768213 80.0494408,40.7766614 C79.860873,40.2765016 79.6011728,39.8503896 79.2700048,39.4979889 C78.9388368,39.1459248 78.5573393,38.8702647 78.1251768,38.6699988 C77.6926788,38.4700695 77.2330028,38.3701048 76.7458134,38.3701048 C76.2582885,38.3701048 75.7915664,38.4700695 75.3456472,38.6699988 C74.8993924,38.8702647 74.5182305,39.1459248 74.2008192,39.4979889 C73.8834079,39.8503896 73.6304184,40.2765016 73.4421861,40.7766614 C73.2536183,41.2768213 73.1593344,41.8224197 73.1593344,42.4134565 C73.1593344,42.9960788 73.2536183,43.5288871 73.4421861,44.0115447 C73.6304184,44.4942024 73.8834079,44.9092072 74.2008192,45.2568957 C74.5182305,45.6049208 74.8993924,45.8721664 75.3456472,46.0593056 C75.7915664,46.2467814 76.2582885,46.3396779 76.7458134,46.3396779 C77.2330028,46.3396779 77.6926788,46.2467814 78.1251768,46.0593056 Z M131.302639,30.5678127 C132.16797,30.9289645 132.847419,31.4378755 133.509755,32.0928628 C134.144242,32.7387624 134.637471,33.4694805 134.998836,34.3280995 C135.36557,35.2011915 135.632652,36.1739116 135.632652,37.4488817 L135.632652,49.6714966 L131.90827,49.6714966 L131.90827,37.0732569 C131.90827,36.5054442 131.68011,35.5482069 131.018445,34.8063816 C130.459452,34.1793305 129.590765,33.6821999 128.514721,33.6821999 C127.457466,33.6821999 126.599852,34.1702428 126.038846,34.8063816 C125.483208,35.4364619 125.149356,36.3213342 125.149356,37.0732569 L125.149356,49.6714966 L121.424974,49.6714966 L121.424974,37.4488817 C121.424974,36.2634422 121.659174,35.1446458 122.052415,34.3004998 C122.458406,33.4287541 122.893924,32.728665 123.533109,32.0878141 C124.209201,31.4092661 124.893011,30.9235792 125.748613,30.5607445 C126.63676,30.1837734 127.494039,30 128.514721,30 C129.535738,30 130.395702,30.1891587 131.302639,30.5678127 Z M141.826534,38.0722304 L149.771882,38.0722304 L149.771882,41.5592131 L141.826534,41.5592131 L141.826534,42.4450952 C141.826534,43.4154592 142.119787,44.1377627 142.593555,44.7250972 C143.208582,45.4877905 144.136657,46.0189159 145.329466,45.9869406 L151.206272,45.9869406 L151.206272,49.6677942 L145.288196,49.6677942 C143.989695,49.6677942 142.952908,49.3998755 141.978529,48.8936571 C141.249087,48.5146665 140.539777,47.9801754 140.042186,47.4073139 C139.475812,46.7550193 139.165446,46.2962589 138.814482,45.5668871 C138.306154,44.5096851 138.101817,43.340065 138.101817,42.3898958 L138.101817,37.2691473 C138.101817,36.3284024 138.305148,35.3230339 138.698724,34.3964255 C139.035932,33.6024301 139.590898,32.7417916 140.119693,32.1928275 C140.648489,31.6438633 141.371556,31.0551825 142.114754,30.7085037 C143.016659,30.287777 143.941043,30.0050487 144.952666,30.0050487 L151.206272,30.0050487 L151.206272,33.6859023 L145.329466,33.6859023 C144.340995,33.6859023 143.481368,34.0070009 142.819031,34.6996853 C142.187229,35.3603945 141.826534,36.2822908 141.826534,37.1863483 L141.826534,38.0722304 Z M161.744595,33.6821999 L161.744595,49.6677942 L158.019878,49.6677942 L158.019878,33.6821999 L152.764473,33.6821999 L152.764473,30.0050487 L167,30.0050487 L167,33.6821999 L161.744595,33.6821999 Z" id="loconet" fill="#696464" fill-rule="nonzero"></path>
                <path d="M103.292268,32.8434392 L101.843114,34.2988169 C101.171383,33.6229616 100.392954,33.0918362 99.5084971,32.7054408 C98.5941781,32.3065919 97.616444,32.1069992 96.5746237,32.1069992 C95.5234085,32.1069992 94.5429901,32.3065919 93.6340397,32.7054408 C92.7247536,33.1042897 91.9295478,33.657966 91.2474155,34.36546 C90.5656188,35.0732906 90.0257512,35.9093586 89.6278127,36.8736642 C89.2302098,37.8376332 89.0315761,38.8857475 89.0315761,40.0159876 C89.0315761,41.1371401 89.2302098,42.1748203 89.6278127,43.1297016 C90.0257512,44.0845829 90.5656188,44.9139193 91.2474155,45.616028 C91.9295478,46.319483 92.7247536,46.8681106 93.6340397,47.2619108 C94.5429901,47.6563841 95.5234085,47.8536208 96.5742881,47.8536208 C97.616444,47.8536208 98.5941781,47.6563841 99.5084971,47.2619108 C100.211432,46.9589876 100.847261,46.5641776 101.415985,46.077481 L102.886948,47.5540634 C102.116235,48.2514599 101.243522,48.810185 100.269143,49.2302385 C99.1092165,49.7303983 97.8684269,49.9808149 96.5467747,49.9808149 C95.2130433,49.9808149 93.969234,49.7303983 92.8160178,49.2302385 C91.662466,48.7307518 90.6531921,48.0340284 89.7875249,47.1417512 C88.9225289,46.2504838 88.2377124,45.1986671 87.7327399,43.9866377 C87.2284384,42.7752815 86.9761199,41.4585753 86.9761199,40.0365191 C86.9761199,38.6020094 87.2284384,37.2728497 87.7327399,36.0493765 C88.2377124,34.8259033 88.9225289,33.7649989 89.7875249,32.8669999 C90.6531921,31.9693374 91.662466,31.2668922 92.8160178,30.7606738 C93.969234,30.2544555 95.2130433,30.0013463 96.5467747,30.0013463 C97.8684269,30.0013463 99.1092165,30.2544555 100.269143,30.7606738 C101.418333,31.2625166 102.42593,31.9572205 103.292268,32.8434392 Z M113.828242,35.2910587 C114.715383,35.6784638 115.49247,36.2159842 116.159168,36.9029468 C116.82553,37.5902459 117.352648,38.4020801 117.738507,39.3384494 C118.125038,40.2748187 118.317967,41.2919675 118.317967,42.3895592 C118.317967,43.4780633 118.125038,44.4857879 117.738507,45.4127329 C117.352648,46.3403511 116.82553,47.145117 116.159168,47.8273674 C115.49247,48.5106276 114.715383,49.0430992 113.828242,49.4254556 C112.94043,49.8088218 111.991216,50 110.979593,50 C109.958911,50 109.007013,49.8088218 108.124234,49.4254556 C107.241455,49.0430992 106.469065,48.5106276 105.807064,47.8273674 C105.144728,47.145117 104.620631,46.3403511 104.234436,45.4127329 C103.848241,44.4857879 103.655311,43.4780633 103.655311,42.3895592 C103.655311,41.2919675 103.848241,40.2748187 104.234436,39.3384494 C104.620631,38.4020801 105.144728,37.5902459 105.807064,36.9029468 C106.469065,36.2159842 107.241455,35.6784638 108.124234,35.2910587 C109.007013,34.9036536 109.958911,34.7097827 110.979593,34.7097827 C111.991216,34.7097827 112.94043,34.9036536 113.828242,35.2910587 Z M112.903522,47.5217516 C113.505798,47.2605644 114.038284,46.8883055 114.499973,46.402282 C114.961997,45.9172683 115.324034,45.338685 115.58709,44.6655223 C115.84981,43.9923596 115.981337,43.2495246 115.981337,42.4370172 C115.981337,41.6123929 115.84981,40.8513825 115.58709,40.153986 C115.324034,39.4562528 114.961997,38.8621868 114.499973,38.3711146 C114.038284,37.8800424 113.505798,37.4949934 112.903522,37.2159674 C112.300574,36.9372781 111.659377,36.7975968 110.979593,36.7975968 C110.29981,36.7975968 109.648882,36.9372781 109.027145,37.2159674 C108.404737,37.4949934 107.872922,37.8800424 107.430358,38.3711146 C106.988129,38.8621868 106.634817,39.4562528 106.372432,40.153986 C106.109377,40.8513825 105.978185,41.6123929 105.978185,42.4370172 C105.978185,43.2495246 106.109377,43.9923596 106.372432,44.6655223 C106.634817,45.338685 106.988129,45.9172683 107.430358,46.402282 C107.872922,46.8883055 108.404737,47.2605644 109.027145,47.5217516 C109.648882,47.7829387 110.29981,47.9121859 110.979593,47.9121859 C111.659377,47.9121859 112.300574,47.7829387 112.903522,47.5217516 Z" id="Combined-Shape" fill="#00A5D7"></path>
            </g>
        </g>
    </g>
</svg>
